!!!OTL: ICH BETE AN DIE MACHT DER LIEBE
!!!ARE: Europa, Mitteleuropa, Deutschland
!!!SCT: B0759
!!!YEM: Copyright 1995, estate of Helmut Schaffrath.
**kern
*ICvox
*Ivox
*M3/4
*k[]
*C:
{4g
=1
2e
4f
=2
2g
4cc
=3
4dd
4cc
4b
=4
2cc
4g}
=5
{4a
4cc
4a
=6
2g
4e
=7
4g
4f
4e
=8
2d}
{4g
=9
2e
4f
=10
2g
4cc
=11
4dd
4cc
4b
=12
2cc
4g}
=13
{4a
4cc
4a
=14
2g
4e
=15
4g
4f
4e
=16
2d}
{4g
=17
2b
4g
=18
2cc
4g
=19
4ee
4dd
4cc
=20
2cc
4b}
=21
{4cc
4b
4a
=22
2g
4e
=23
4a
4g
4f
=24
2.e
=25
2.d
=26
2c}
==
!!!AGN: geistliches Volks - Lied, religioes
!!!ONB: ESAC (Essen Associative Code) Database: BOEHME
!!!AMT: simple triple
!!!AIN: vox
!!!EED: Helmut Schaffrath
!!!EEV: 1.0
*-
